X: 11999
T: Eoin's
R: polka
M: 2/4
K: Dmajor
AD FA|dc B2|Bd AD|GA/G/ FE|
AD FA|dc B2|Bd AF|EF/E/ D2:|
d>e fd|cf B2|Bd Ad|BA GF|
d>e fd|cf B2|Bd Ad|Bd dc|
d>e fd|cf B2|Bd Ad|Bd ef/g/|
af ge|fF G>A|Bd AF|EF/E/ D2||

